modules/hawcons-stroke/icons/rock-n-roll.svg

<?xml version="1.0" encoding="UTF-8" standalone="no"?>
<svg width="32px" height="32px" viewBox="0 0 32 32" version="1.1" xmlns="http://www.w3.org/2000/svg" xmlns:xlink="http://www.w3.org/1999/xlink" xmlns:sketch="http://www.bohemiancoding.com/sketch/ns">
    <!-- Generator: Sketch 3.0.3 (7891) - http://www.bohemiancoding.com/sketch -->
    <title>icon 2 rock n roll</title>
    <desc>Created with Sketch.</desc>
    <defs></defs>
    <g id="Page-1" stroke="none" stroke-width="1" fill="none" fill-rule="evenodd" sketch:type="MSPage">
        <g id="icon-2-rock-n-roll" sketch:type="MSArtboardGroup" fill="#929292">
            <path d="M28,20.5 C28,25.1944206 24.1944206,29 19.5,29.0000003 C16.3870848,29.0000003 13.101807,27.5474856 10.8408204,23.4282229 C7.57733174,17.4825159 3.40385286,13.5832077 5.39111327,11.5959473 C6.81276236,10.1742982 9.04484162,11.5381668 11,13.3667868 L11,13.3667868 L11,5.50840855 C11,4.11541748 12.1192881,3 13.5,3 C14.8903379,3 16,4.12305276 16,5.50840855 L16,10.5021366 C16.4178303,10.1873681 16.937197,10 17.5,10 C18.5822278,10 19.4943958,10.6775261 19.845535,11.6283739 C20.2863457,11.238091 20.8655754,11 21.5,11 C22.0648583,11 22.5833887,11.1845728 23,11.4962455 L23,8.49263886 C23,7.11371414 24.1192881,6 25.5,6 C26.8903379,6 28,7.11599243 28,8.49263886 L28,20.5 L28,20.5 Z M19.5,28 C15.7402849,27.9995418 13.5099958,25.9488875 11.7473755,22.9830936 C7.83536199,16.4007216 5.03386293,13.3887562 6.12103271,12.2957153 C7.23162978,11.1791206 9.94160039,13.5979243 12,15.7983451 L12,5.50863659 C12,4.66642015 12.6715729,4 13.5,4 C14.3342028,4 15,4.67543961 15,5.50863659 L15,15 L16,15 L16,12.497101 C16,11.671656 16.6715729,11 17.5,11 C18.3342028,11 19,11.670275 19,12.497101 L19,14 L20,14 L20,13.497101 C20,12.671656 20.6715729,12 21.5,12 C22.3342028,12 23,12.670275 23,13.497101 L23,15 L24,15 L24,8.4912653 C24,7.66254437 24.6715729,7 25.5,7 C26.3342028,7 27,7.66766222 27,8.4912653 L27,16.7543674 L27,20.5 C27,24.6421358 23.6421358,28 19.5,28 L19.5,28 Z" id="rock-n-roll" sketch:type="MSShapeGroup"></path>
        </g>
    </g>
</svg>

<svg width="32" height="32" xmlns="http://www.w3.org/2000/svg"><path d="M28 20.5a8.5 8.5 0 0 1-8.5 8.5c-3.113 0-6.398-1.453-8.66-5.572-3.263-5.945-7.436-9.845-5.449-11.832 1.422-1.422 3.654-.058 5.609 1.77V5.509a2.5 2.5 0 1 1 5 0v4.994A2.485 2.485 0 0 1 17.5 10c1.082 0 1.994.678 2.346 1.628.44-.39 1.02-.628 1.654-.628.565 0 1.083.185 1.5.496V8.493A2.495 2.495 0 0 1 25.5 6 2.49 2.49 0 0 1 28 8.493V20.5zM19.5 28c-3.76 0-5.99-2.051-7.753-5.017-3.912-6.582-6.713-9.594-5.626-10.687 1.11-1.117 3.82 1.302 5.879 3.502V5.508a1.5 1.5 0 0 1 3 0V15h1v-2.503A1.5 1.5 0 0 1 17.5 11c.834 0 1.5.67 1.5 1.497V14h1v-.503A1.5 1.5 0 0 1 21.5 12c.834 0 1.5.67 1.5 1.497V15h1V8.491C24 7.663 24.672 7 25.5 7c.834 0 1.5.668 1.5 1.491V20.5a7.5 7.5 0 0 1-7.5 7.5z" fill="#929292" fill-rule="evenodd"/></svg>
